img/icons/icons-services/icon-media-library.svg

<svg width="120" height="120" viewBox="0 0 120 120" fill="none" xmlns="http://www.w3.org/2000/svg">
<path d="M11.3485 103.756H109.895V21.0978H11.1829V71.3139L11.3485 103.756ZM110.947 105.87C110.947 105.87 13.7855 106 11.3485 106C8.91147 106 9.00064 104.374 9.00064 104.374C8.99176 99.4953 9.07853 85.1266 9.07853 72.3871V20.057C9.07853 19.4716 9.54801 19 10.1308 19H110.947C111.53 19 112 19.4716 112 20.057V104.829C112.016 105.398 111.53 105.87 110.947 105.87Z" fill="#282828"/>
<path d="M11.0325 39.25H109.967C110.282 39.25 110.579 39.1891 110.807 39.0789C111.018 38.9768 111.25 38.788 111.25 38.5C111.25 38.212 111.018 38.0232 110.807 37.9211C110.579 37.8109 110.282 37.75 109.967 37.75H11.0325C10.7175 37.75 10.4205 37.8109 10.1928 37.9211C9.98203 38.0232 9.75 38.2121 9.75 38.5C9.75 38.7879 9.98203 38.9768 10.1928 39.0789C10.4205 39.1891 10.7175 39.25 11.0325 39.25Z" fill="#282828" stroke="#282828" stroke-width="0.5"/>
<path d="M76.5 26.7367C75.5248 26.7367 74.7366 27.5248 74.7366 28.5C74.7366 29.4752 75.5248 30.25 76.5 30.25C77.4751 30.25 78.2633 29.4618 78.2633 28.5C78.2767 27.5382 77.4751 26.7367 76.5 26.7367ZM76.5 32C74.5763 32 73 30.437 73 28.5134C73 26.5763 74.563 25 76.5 25C78.437 25 79.9999 26.5763 79.9999 28.5134C80.0133 30.437 78.437 32 76.5 32Z" fill="#282828"/>
<path d="M88.5 26.7367C87.5248 26.7367 86.7366 27.5248 86.7366 28.5C86.7366 29.4752 87.5248 30.25 88.5 30.25C89.4752 30.25 90.2634 29.4618 90.2634 28.5C90.2634 27.5382 89.4752 26.7367 88.5 26.7367ZM88.5 32C86.5763 32 85 30.437 85 28.5134C85 26.5763 86.5763 25 88.5 25C90.4237 25 92 26.5763 92 28.5134C92 30.437 90.4237 32 88.5 32Z" fill="#282828"/>
<path d="M100.5 26.7367C99.5248 26.7367 98.7366 27.5248 98.7366 28.5C98.7366 29.4752 99.5248 30.25 100.5 30.25C101.475 30.25 102.25 29.4618 102.25 28.5C102.263 27.5382 101.475 26.7367 100.5 26.7367ZM100.5 32C98.5763 32 97 30.437 97 28.5134C97 26.5763 98.5763 25 100.5 25C102.424 25 104 26.5763 104 28.5134C104 30.437 102.424 32 100.5 32Z" fill="#282828"/>
<path d="M51 84V52L80 66.4L51 84Z" stroke="#282828" stroke-width="2.2" stroke-linecap="round" stroke-linejoin="round"/>
</svg>

<svg width="120" height="120" fill="none" xmlns="http://www.w3.org/2000/svg"><path d="M11.348 103.756h98.547V21.098H11.183v50.216l.165 32.442zm99.599 2.114s-97.162.13-99.599.13c-2.437 0-2.347-1.626-2.347-1.626-.01-4.879.078-19.247.078-31.987v-52.33c0-.585.469-1.057 1.052-1.057h100.816c.583 0 1.053.472 1.053 1.057v84.772c.016.569-.47 1.041-1.053 1.041z" fill="#282828"/><path d="M11.033 39.25h98.934c.315 0 .612-.06.84-.171.211-.102.443-.291.443-.579s-.232-.477-.443-.579a1.972 1.972 0 00-.84-.171H11.033c-.316 0-.612.06-.84.171-.211.102-.443.291-.443.579s.232.477.443.579c.228.11.524.171.84.171z" fill="#282828" stroke="#282828" stroke-width=".5"/><path d="M76.5 26.737c-.975 0-1.763.788-1.763 1.763 0 .975.788 1.75 1.763 1.75.975 0 1.763-.788 1.763-1.75.014-.962-.788-1.763-1.763-1.763zm0 5.263c-1.924 0-3.5-1.563-3.5-3.487A3.506 3.506 0 0176.5 25c1.937 0 3.5 1.576 3.5 3.513.013 1.924-1.563 3.487-3.5 3.487zm12-5.263c-.975 0-1.763.788-1.763 1.763 0 .975.788 1.75 1.763 1.75.975 0 1.763-.788 1.763-1.75a1.77 1.77 0 00-1.763-1.763zm0 5.263c-1.924 0-3.5-1.563-3.5-3.487C85 26.576 86.576 25 88.5 25s3.5 1.576 3.5 3.513C92 30.437 90.424 32 88.5 32zm12-5.263c-.975 0-1.763.788-1.763 1.763 0 .975.788 1.75 1.763 1.75.975 0 1.75-.788 1.75-1.75a1.75 1.75 0 00-1.75-1.763zm0 5.263c-1.924 0-3.5-1.563-3.5-3.487C97 26.576 98.576 25 100.5 25s3.5 1.576 3.5 3.513c0 1.924-1.576 3.487-3.5 3.487z" fill="#282828"/><path d="M51 84V52l29 14.4L51 84z" stroke="#282828" stroke-width="2.2" stroke-linecap="round" stroke-linejoin="round"/></svg>
